app/assets/icons/flag.svg

<svg width="30" height="30" viewBox="0 0 30 30" version="1.1" xmlns="http://www.w3.org/2000/svg" xmlns:xlink="http://www.w3.org/1999/xlink">
<title>Group</title>
<desc>Created using Figma</desc>
<g id="Canvas" transform="translate(-2575 -1725)">
<g id="Group">
<g id="up-arrow">
<g id="Group">
<g id="Vector">
<use xlink:href="#path0_fill" transform="translate(2575 1725)" fill="#E34646"/>
</g>
</g>
</g>
<g id="flag (1)">
<g id="Vector">
<use xlink:href="#path1_fill" transform="translate(2586 1732.58)" fill="#FFFFFF"/>
</g>
</g>
</g>
</g>
<defs>
<path id="path0_fill" d="M 15 0C 6.72889 0 0 6.72889 0 15C 0 23.2711 6.72889 30 15 30C 23.2711 30 30 23.2711 30 15C 30 6.72889 23.2711 0 15 0Z"/>
<path id="path1_fill" d="M 8.6742 0.727421C 8.6336 0.708692 7.6622 0.265673 6.5112 0.265673C 5.8244 0.265673 5.2172 0.424522 4.7064 0.737826C 4.2538 1.01552 3.6398 1.1561 2.8814 1.1561C 1.8198 1.1561 0.773 0.875865 0.4 0.764648L 0.4 0.231221C 0.4 0.103356 0.3106 0 0.2 0C 0.0894 0 0 0.103356 0 0.231221L 0 0.924884C 0 0.928121 0.00140008 0.930896 0.00160008 0.934133C 0.00160008 0.936907 0 0.93922 0 0.941994L 0 7.63029L 0 7.87862L 0 13.1796C 0 13.3075 0 13.8733 0.6 13.8733C 1.2 13.8733 1.2 13.3075 1.2 13.1796L 1.2 8.32396C 1.6546 8.45436 1.8486 8.55518 2.8814 8.55518C 3.7058 8.55518 4.3828 8.3961 4.8938 8.08302C 5.3464 7.80533 5.8904 7.66451 6.5112 7.66451C 7.5826 7.66451 8.5166 8.08903 8.5258 8.0932C 8.5876 8.12187 8.6572 8.11308 8.7122 8.06961C 8.767 8.02707 8.8 7.95539 8.8 7.87862L 8.8 0.941994C 8.8 0.847425 8.7502 0.762567 8.6742 0.727421Z"/>
</defs>
</svg>

<svg viewBox="0 0 30 30" xmlns="http://www.w3.org/2000/svg" xmlns:xlink="http://www.w3.org/1999/xlink"><use xlink:href="#path0_fill" fill="#E34646"/><use xlink:href="#path1_fill" transform="translate(11 7.58)" fill="#FFF"/><defs><path id="path0_fill" d="M15 0C6.729 0 0 6.729 0 15s6.729 15 15 15 15-6.729 15-15S23.271 0 15 0z"/><path id="path1_fill" d="M8.674.727A5.703 5.703 0 0 0 6.511.266c-.687 0-1.294.159-1.805.472-.452.278-1.066.418-1.825.418C1.82 1.156.773.876.4.765V.23C.4.103.31 0 .2 0 .09 0 0 .103 0 .231v.694l.002.01L0 .941v12.238c0 .128 0 .694.6.694s.6-.566.6-.693V8.324c.455.13.649.231 1.681.231.825 0 1.502-.159 2.013-.472.452-.278.996-.418 1.617-.418 1.072 0 2.006.424 2.015.428.062.029.131.02.186-.023a.242.242 0 0 0 .088-.191V.942c0-.095-.05-.18-.126-.215z"/></defs></svg>
